packages/components/src/telekom/icons/weather/moon-cloudy-a/default.svg

<?xml version="1.0" encoding="UTF-8"?>
<svg width="24px" height="24px" viewBox="0 0 24 24" version="1.1" xmlns="http://www.w3.org/2000/svg" xmlns:xlink="http://www.w3.org/1999/xlink">
    <title>icon/weather/moon-cloudy-a/default</title>
    <g id="icon/weather/moon-cloudy-a/default" stroke="none" stroke-width="1" fill="none" fill-rule="evenodd">
        <path d="M10.0996,8.3812 C12.4528,8.3812 14.528,9.8328 15.342,12.02 C16.722,12.7508 17.6,14.1924 17.6,15.7636 C17.6,18.0288121 15.8130307,19.8844242 13.5750876,19.9948055 L13.364,20 L4.2728,20 C2.1372,20 0.4,18.2628 0.4,16.1272 C0.4,14.7356 1.1504,13.4584 2.342,12.772 C2.462,10.96 3.9744,9.5228 5.816,9.5228 C6.08,9.5228 6.344,9.5536 6.6036,9.6144 C7.5964,8.8168 8.8252,8.3812 10.0996,8.3812 Z M10.0992,9.5808 C9.09415385,9.5808 8.12455385,9.9264 7.34235703,10.559397 L7.1508,10.7236 L6.8888,10.9616 L6.554,10.8472 C6.3108,10.7644 6.0628,10.7224 5.8156,10.7224 C4.61001667,10.7224 3.61970694,11.6624771 3.53927416,12.8480279 L3.534,13.004 L3.558,13.5208 L3.1852,13.6872 C2.2224,14.1176 1.6,15.0752 1.6,16.1272 C1.6,17.5441231 2.70835799,18.7073479 4.10399693,18.7947307 L4.2728,18.8 L13.3636,18.8 C15.038,18.8 16.4,17.438 16.4,15.7636 C16.4,14.6400889 15.772763,13.6089864 14.7865158,13.0837529 L14.6088,12.9964 L14.366,12.8868 L14.2844,12.6328 C13.6988,10.8072 12.0168,9.5808 10.0992,9.5808 Z M18.1764,2.9056 C19.066,2.672 19.9616,2.676 20.7976,2.8752 C18.8728,3.8008 17.8092,5.9864 18.372,8.1292 C19.004,10.5352 21.448,11.98 23.8548,11.3904 C23.1496,12.324 22.1408,13.0388 20.9212,13.3592 C20.0092,13.5988 19.0908,13.5892 18.2364,13.3744 C17.8052,12.4956 17.146,11.734 16.298,11.1904 C15.8132,10.1028 15.0724,9.1924 14.1612,8.5144 C13.9784,5.9708 15.62,3.5768 18.1764,2.9056 Z" id="Shape" fill="#262626" fill-rule="nonzero"></path>
    </g>
</svg>

<svg width="24" height="24" xmlns="http://www.w3.org/2000/svg"><path d="M10.1 8.381a5.577 5.577 0 015.242 3.639 4.246 4.246 0 012.258 3.744 4.242 4.242 0 01-4.025 4.23l-.211.006H4.273A3.877 3.877 0 01.4 16.127c0-1.391.75-2.669 1.942-3.355a3.486 3.486 0 014.262-3.158A5.574 5.574 0 0110.1 8.381zm0 1.2a4.377 4.377 0 00-2.758.978l-.191.165-.262.238-.335-.115a2.286 2.286 0 00-.738-.125c-1.206 0-2.196.94-2.277 2.126l-.005.156.024.517-.373.166a2.677 2.677 0 00-1.585 2.44 2.676 2.676 0 002.504 2.668l.169.005h9.09a3.04 3.04 0 003.037-3.036 3.044 3.044 0 00-1.613-2.68l-.178-.088-.243-.11-.082-.253A4.381 4.381 0 0010.1 9.58zm8.076-6.675a5.38 5.38 0 012.622-.03 4.549 4.549 0 003.057 8.515 5.376 5.376 0 01-2.934 1.968c-.912.24-1.83.23-2.685.015a5.42 5.42 0 00-1.938-2.184 6.748 6.748 0 00-2.137-2.676 5.403 5.403 0 014.015-5.608z" fill="#000" fill-rule="evenodd"/></svg>
